X:1
T:Kane, SMD
T:Kane, SMD
T:Lowell Mason, harm. by Henry Dibdin (1813-1866)
T:Public Domain Courtesy of the Cyber Hymnal™
C:Lowell Mason, harm. by Henry Dibdin (1813-1866)
Z:Public Domain
Z:Courtesy of the Cyber Hymnal™
%%score ( 1 2 ) ( 3 4 )
L:1/8
Q:1/4=113
M:4/4
K:Ab
V:1 treble 
V:2 treble 
V:3 bass 
V:4 bass 
V:1
 [CE]2 | [EA]2 [EB]2 [Ec]2 [EB]2 | [CA]6 E2 | [DF]2 [DG]2 [EA]2 [DF]2 | [CE]6 E2 | %5
 [EA]2 [EB]2 [Ec]2 [Fd]2 | [Ee]2 [EB]2 [Ec]2 [EA]2 | (FG) [EA]2 [FB]2 [EG]2 | [EA]6 [EB]2 | %9
 [Ec]2 [Ec]2 [EB]2 [FA]2 | B6 E2 | [CF]2 [CF]2 [B,E]2 [B,=D]2 | [B,E]6 E2 | %13
 [EA]2 [EB]2 [Ec]2 [Fd]2 | [Ge]2 [EB]2 [Ec]2 [EA]2 | (FG) [CA]2 [FB]2 G2 | [CA]6 |] %17
V:2
 x2 | x8 | x6 E2 | x8 | x6 E2 | x8 | x8 | D2 x6 | x8 | x8 | (E2 =D4) E2 | x8 | x6 E2 | x8 | x8 | %15
 D2 x3 (ED) x | x6 |] %17
V:3
 [A,,A,]2 | [C,A,]2 [E,G,]2 A,2 [E,G,]2 | [F,A,]6 [C,A,]2 | [D,A,]2 [B,,B,]2 [C,A,]2 [D,A,]2 | %4
 [A,,A,]6 [E,G,]2 | [C,A,]2 [E,G,]2 A,2 [F,A,]2 | [G,B,]2 [E,G,]2 A,2 [C,A,]2 | %7
 [D,A,]2 [C,A,]2 [B,,D]2 [E,B,]2 | [A,,C]6 [E,G,]2 | [A,,A,]2 A,2 [G,B,]2 [F,C]2 | %10
 [B,,B,]6 [C,G,]2 | [A,,A,]2 [A,,F,]2 [B,,G,]2 [B,,A,]2 | [E,G,]6 G,2 | %13
 [C,A,]2 [D,G,]2 A,2 [F,A,]2 | [E,B,]2 [E,G,]2 A,2 [C,A,]2 | [D,A,]2 [F,A,]2 [D,D]2 [E,B,]2 | %16
 [A,,A,]6 |] %17
V:4
 x2 | x4 A,2 x2 | x8 | x8 | x8 | x4 A,2 x2 | x4 A,2 x2 | x8 | x8 | x2 A,2 x4 | x8 | x8 | %12
 x6 (E,D,) | x4 A,2 x2 | x4 A,2 x2 | x8 | x6 |] %17

